X:651
T:Anglais efter Ola Hansson
C:Trad
S:efter Ola Hansson
R:Anglais
Z:Patrik Månsson, 2008-10-16
O:Brunnby, Skåne
B:http://spillefolk.dk/nodesamling/visnode.php?key=en-olahangl
M:2/4
L:1/16
K:G

|: "G"D2DG B2Bc | "D"A2Ac  "G"B2G2 | "G"D2DG B2Bc | "D"AGAB "G"G4 :|
|: "G"dcBc d2ef | "C"g2fg "G"d4 | "G"dcBc defg | "D"dcAF "G"G4 :|


(:musicend:)

(:music:)
